X:1
T:In the Service of the King
T:In the Service of the King
T:Bentley DeForest Ackley
T:Alfred Henry Ackley, 1912
T:Public Domain Courtesy of the Cyber Hymnal™
C:Bentley DeForest Ackley
Z:Public Domain
Z:Courtesy of the Cyber Hymnal™
%%score 1 ( 2 3 )
L:1/8
Q:1/4=110
M:4/4
K:Ab
V:1 treble 
V:2 bass 
V:3 bass 
V:1
 [A,C]>[B,D] | [CE]>[CE] [=B,=D]>[CE] [CF]>[CE] [B,D]>[CE] | [Ec]6 [Ec][Fd] | %3
w: 1.~I am|hap- py in the ser- vice of the|King. I am|
w: 2.~I am|hap- py in the ser- vice of the|King. I am|
w: 3.~I am|hap- py in the ser- vice of the|King. I am|
w: 4.~I am|hap- py in the ser- vice of the|King. I am|
 [Ec]2 [DB]2 [DE]2 [Ec]2 | [DB]2 [CA]4 [A,C]>[B,D] | [CE]>[CE] [=B,=D]>[CE] [CF]>[CE] [B,D]>[CE] | %6
w: hap- py, O so|hap- py! I have|peace and joy that no- thing else can|
w: hap- py, O so|hap- py! Through the|sun- shine and the sha- dow I can|
w: hap- py, O so|hap- py! To His|guid- ing hand for- ev- er I will|
w: hap- py, O so|hap- py! All that|I pos- sess to Him I glad- ly|
 [Ec]6 [Ec][Fd] | [Ec]2 [DB]2 [DF]2 [DG]2 | [CA]6 ||"^Refrain" [CE][CA] | [Ec]2 [Ec]2 [Fd]2 [Ec]2 | %11
w: bring, In the|ser- vice of the|King.|||
w: sing, In the|ser- vice of the|King.|In the|ser- vice of the|
w: cling, In the|ser- vice of the|King.|||
w: bring, In the|ser- vice of the|King.|||
 [=DF]6 [_DG][CA] | [DB]2 [EG]2 [EA]2 [EB]2 | [Ec]6 [Ec][Ed] | [Ee]2 [Ec]2 [Fd]2 [Ec]2 | %15
w: ||||
w: King Ev- ery|tal- ent I will|bring. I have|peace and joy and|
w: ||||
w: ||||
 [DB]2 [DA]2 [DG]2 [=B,F]2 | [CE] [Ec]3 [Ec]3 [DB] | [CA]6 |] %18
w: |||
w: bless- ing In the|ser- vice of the|King.|
w: |||
w: |||
V:2
 [A,,E,]>[A,,E,] | [A,,A,]>[A,,A,] [A,,A,]>[A,,A,] [A,,A,]>[A,,A,] [A,,A,]>[A,,A,] | A,6 A,A, | %3
 [E,G,]2 [E,G,]2 [E,G,]2 [E,G,]2 | [E,G,]2 [A,,A,]4 [A,,E,]>[A,,E,] | %5
 [A,,A,]>[A,,A,] [A,,A,]>[A,,A,] [A,,A,]>[A,,A,] [A,,A,]>[A,,A,] | A,6 A,A, | %7
 [E,G,]2 [E,G,]2 [E,A,]2 [E,B,]2 | [A,,A,]6 || [A,,A,][A,,E,] | %10
 [A,,A,]2 [A,,A,]2 [A,,A,]2 [A,,A,]2 | [B,,A,]6 [E,B,][E,A,] | [E,G,]2 [D,B,]2 [C,A,]2 [E,G,]2 | %13
 A,6 A,[A,B,] | [A,C]2 [A,,A,]2 [A,,A,]2 [A,,A,]2 | [D,F,]2 [D,F,]2 [D,G,]2 [=D,A,]2 | %16
 [E,A,] [E,A,]3 [E,G,]3 [E,G,] | [A,,E,]6 |] %18
V:3
 x2 | x8 | A,6 A,A, | x8 | x8 | x8 | A,6 A,A, | x8 | x6 || x2 | x8 | x8 | x8 | A,6 A, x | x8 | x8 | %16
 x8 | x6 |] %18

